app/assets/v2/images/hackathon/beyond_block/sponsors/thegraph-white.svg

<svg fill="none" height="173" viewBox="0 0 301 173" width="301" xmlns="http://www.w3.org/2000/svg" xmlns:xlink="http://www.w3.org/1999/xlink"><linearGradient id="a" gradientUnits="userSpaceOnUse" x1="35.293" x2="125.625" y1="26.871" y2="117.203"><stop offset="0" stop-color="#00d3e6"/><stop offset="1" stop-color="#2b4cd4"/></linearGradient><path d="m132.168 24.75c0 1.6317-.484 3.2267-1.39 4.5835-.907 1.3567-2.195 2.4141-3.703 3.0385-1.507.6244-3.166.7878-4.766.4695-1.601-.3183-3.071-1.1041-4.225-2.2579-1.153-1.1538-1.939-2.6238-2.257-4.2241-.319-1.6003-.155-3.2591.469-4.7666s1.682-2.796 3.039-3.7025c1.356-.9065 2.951-1.3904 4.583-1.3904 2.188 0 4.286.8692 5.834 2.4164 1.547 1.5471 2.416 3.6456 2.416 5.8336zm-16.5 41.25c0 9.7902-2.903 19.3605-8.342 27.5007-5.439 8.1403-13.1702 14.4853-22.2152 18.2313-9.0449 3.747-18.9977 4.727-28.5998 2.817-9.602-1.91-18.4221-6.625-25.3448-13.547-6.9227-6.9229-11.6371-15.743-13.5471-25.345-1.9099-9.6021-.9297-19.5549 2.8169-28.5998 3.7465-9.045 10.091-16.7758 18.2313-22.2149 8.1402-5.4392 17.7105-8.3423 27.5007-8.3423 13.1282 0 25.7187 5.2152 35.002 14.4982 9.283 9.2831 14.498 21.8736 14.498 35.0018zm-16.5 0c0-6.5268-1.9354-12.907-5.5615-18.3338s-8.78-9.6565-14.8099-12.1542c-6.03-2.4977-12.6652-3.1512-19.0666-1.8779s-12.2814 4.4162-16.8965 9.0314c-4.6152 4.6151-7.7581 10.4951-9.0314 16.8965s-.6198 13.0366 1.8779 19.0666c2.4977 6.0299 6.7274 11.1838 12.1542 14.8099s11.807 5.5615 18.3338 5.5615c8.7521 0 17.1458-3.4768 23.3345-9.6655s9.6655-14.5824 9.6655-23.3345zm14.08 51.92c-.763-.766-1.669-1.373-2.667-1.789-.998-.415-2.067-.63-3.148-.632s-2.152.209-3.151.621-1.907 1.016-2.673 1.779l-.021.021-33 33c-1.5316 1.549-2.3878 3.642-2.3816 5.82.0062 2.179.8744 4.266 2.4149 5.807 1.5404 1.54 3.6279 2.408 5.8065 2.415 2.1785.006 4.271-.85 5.8202-2.382l33-33c1.546-1.541 2.417-3.632 2.421-5.815s-.86-4.278-2.4-5.824z" fill="url(#a)"/><path d="m161.628 66.312c-5.084 0-9.16-2.83-9.16-8.681v-9.831h-4.844v-5.756h4.844v-6.666h6.57v6.666h6.762v5.756h-6.762v8.537c0 2.926 1.247 4.076 4.076 4.076.914.0211 1.824-.125 2.686-.431v5.8c-1.355.3918-2.762.5706-4.172.53zm9.831-36.257h6.57v14.724c.784-1.069 1.821-1.9267 3.018-2.496 1.197-.5694 2.517-.8326 3.841-.766 5.8 0 9.255 4.221 9.255 10.455v14.052h-6.57v-12.949c0-3.453-1.486-5.563-4.221-5.563-3.021 0-5.323 2.206-5.323 6.81v11.7h-6.57zm40.718 36.5c-1.667.0632-3.329-.2186-4.882-.8277-1.553-.609-2.963-1.5322-4.143-2.7117-1.179-1.1795-2.103-2.5899-2.712-4.1428s-.891-3.2149-.828-4.8818c-.04-1.6605.26-3.3116.882-4.8519s1.551-2.9373 2.733-4.1051c1.181-1.1678 2.588-2.0819 4.135-2.686 1.548-.6041 3.202-.8855 4.862-.827 7.051 0 12.854 5.036 12.518 14.052h-18.7c.288 2.83 2.4 5.275 6.475 5.275 2.3 0 4.316-1.007 5.083-2.638h6.858c-1.443 4.84-6.191 8.341-12.281 8.341zm-5.9-15.3h11.271c-.253-1.2672-.945-2.4045-1.954-3.2116s-2.27-1.2322-3.562-1.2004c-1.326-.0665-2.633.3403-3.687 1.1479s-1.786 1.9633-2.067 3.2611zm-50.357 49.231c.815 2.446 2.685 3.549 5.419 3.549 2.878 0 5.419-1.871 5.419-5.659v-2.83c-.836 1.0283-1.899 1.8491-3.106 2.3982-1.206.5491-2.523.8115-3.848.7668-6.235 0-11.318-5.371-11.318-12.085 0-6.762 5.083-12.133 11.318-12.133 1.33-.0475 2.652.2186 3.86.7767 1.208.5582 2.268 1.3928 3.094 2.4363v-2.689h6.57v22.493c0 8.68-5.9 11.989-12.133 11.989-6.763 0-11.223-3.884-11.7-9.016zm5.275-20c-1.216-.0095-2.408.3425-3.424 1.0113s-1.81 1.6242-2.282 2.7452c-.472 1.1209-.6 2.3568-.369 3.5508.232 1.1941.813 2.2924 1.669 3.1557.857.8634 1.951 1.4527 3.143 1.6934s2.429.1218 3.554-.3415c1.124-.4634 2.086-1.2503 2.762-2.261.677-1.0107 1.038-2.1996 1.038-3.4159.024-.8083-.116-1.6131-.413-2.3654-.296-.7523-.743-1.4364-1.312-2.0107s-1.25-1.0267-1.999-1.3298c-.75-.3031-1.554-.4504-2.362-.4331zm19.424-5.468h6.57v3.837c.458-1.2084 1.271-2.2495 2.333-2.9858s2.323-1.1332 3.615-1.1382c.745-.0134 1.489.0833 2.206.287v6.667c-.955-.3417-1.96-.5202-2.974-.528-3.117 0-5.18 2.446-5.18 6.379v11.464h-6.57zm28.781-.528c1.32-.0336 2.63.2386 3.827.7955s2.249 1.3833 3.073 2.4145v-2.683h6.57v23.983h-6.57v-2.689c-.825 1.0325-1.878 1.8599-3.076 2.4174-1.199.5574-2.51.8298-3.831.7956-6.378 0-11.269-5.707-11.269-12.517s4.893-12.517 11.276-12.517zm1.392 6c-3.6 0-6.043 2.781-6.043 6.522s2.445 6.523 6.043 6.523 6.042-2.783 6.042-6.523-2.45-6.527-6.047-6.527zm19.424-5.468h6.57v2.678c.839-1.0285 1.901-1.8523 3.106-2.4091 1.205-.5567 2.521-.8316 3.848-.8039 6.379 0 11.271 5.707 11.271 12.517s-4.892 12.517-11.271 12.517c-1.327.0275-2.643-.2476-3.848-.8042-1.205-.5567-2.267-1.3805-3.106-2.4088v12.712h-6.57zm12.084 5.463c-3.6 0-6.043 2.781-6.043 6.522s2.443 6.523 6.043 6.523 6.043-2.783 6.043-6.523-2.45-6.522-6.043-6.522zm18.464-17.457h6.57v14.723c.784-1.0688 1.821-1.9262 3.018-2.4953 1.197-.5692 2.516-.8323 3.84-.7657 5.8 0 9.256 4.22 9.256 10.455v14.055h-6.57v-12.953c0-3.452-1.487-5.562-4.221-5.562-3.021 0-5.323 2.206-5.323 6.809v11.706h-6.57z" fill="#fff"/></svg>

<svg width="301" height="173" viewBox="0 0 301 173" fill="none" xmlns="http://www.w3.org/2000/svg">
<path d="M132.168 24.75C132.168 26.3817 131.684 27.9767 130.778 29.3335C129.871 30.6902 128.583 31.7476 127.075 32.372C125.568 32.9964 123.909 33.1598 122.309 32.8415C120.708 32.5232 119.238 31.7374 118.084 30.5836C116.931 29.4298 116.145 27.9598 115.827 26.3595C115.508 24.7592 115.672 23.1004 116.296 21.5929C116.92 20.0854 117.978 18.7969 119.335 17.8904C120.691 16.9839 122.286 16.5 123.918 16.5C126.106 16.5 128.204 17.3692 129.752 18.9164C131.299 20.4635 132.168 22.562 132.168 24.75V24.75ZM115.668 66C115.668 75.7902 112.765 85.3605 107.326 93.5007C101.887 101.641 94.1558 107.986 85.1108 111.732C76.0659 115.479 66.1131 116.459 56.511 114.549C46.909 112.639 38.0889 107.924 31.1662 101.002C24.2435 94.0791 19.5291 85.259 17.6191 75.657C15.7092 66.0549 16.6894 56.1021 20.436 47.0572C24.1825 38.0122 30.527 30.2814 38.6673 24.8423C46.8075 19.4031 56.3778 16.5 66.168 16.5C79.2962 16.5 91.8867 21.7152 101.17 30.9982C110.453 40.2813 115.668 52.8718 115.668 66ZM99.168 66C99.168 59.4732 97.2326 53.093 93.6065 47.6662C89.9804 42.2394 84.8265 38.0097 78.7966 35.512C72.7666 33.0143 66.1314 32.3608 59.73 33.6341C53.3286 34.9074 47.4486 38.0503 42.8335 42.6655C38.2183 47.2806 35.0754 53.1606 33.8021 59.562C32.5288 65.9634 33.1823 72.5986 35.68 78.6286C38.1777 84.6585 42.4074 89.8124 47.8342 93.4385C53.261 97.0646 59.6412 99 66.168 99C74.9201 99 83.3138 95.5232 89.5025 89.3345C95.6912 83.1458 99.168 74.7521 99.168 66V66ZM113.248 117.92C112.485 117.154 111.579 116.547 110.581 116.131C109.583 115.716 108.514 115.501 107.433 115.499C106.352 115.497 105.281 115.708 104.282 116.12C103.283 116.532 102.375 117.136 101.609 117.899L101.588 117.92L68.588 150.92C67.0564 152.469 66.2002 154.562 66.2064 156.74C66.2126 158.919 67.0808 161.006 68.6213 162.547C70.1617 164.087 72.2492 164.955 74.4278 164.962C76.6063 164.968 78.6988 164.112 80.248 162.58L113.248 129.58C114.794 128.039 115.665 125.948 115.669 123.765C115.673 121.582 114.809 119.487 113.269 117.941L113.248 117.92Z" fill="url(#paint0_linear)"/>
<path d="M161.628 66.312C156.544 66.312 152.468 63.482 152.468 57.631V47.8H147.624V42.044H152.468V35.378H159.038V42.044H165.8V47.8H159.038V56.337C159.038 59.263 160.285 60.413 163.114 60.413C164.028 60.4341 164.938 60.288 165.8 59.982V65.782C164.445 66.1738 163.038 66.3526 161.628 66.312V66.312ZM171.459 30.055H178.029V44.779C178.813 43.71 179.85 42.8523 181.047 42.283C182.244 41.7136 183.564 41.4504 184.888 41.517C190.688 41.517 194.143 45.738 194.143 51.972V66.024H187.573V53.075C187.573 49.622 186.087 47.512 183.352 47.512C180.331 47.512 178.029 49.718 178.029 54.322V66.022H171.459V30.055ZM212.177 66.555C210.51 66.6182 208.848 66.3364 207.295 65.7273C205.742 65.1183 204.332 64.1951 203.152 63.0156C201.973 61.8361 201.049 60.4257 200.44 58.8728C199.831 57.3199 199.549 55.6579 199.612 53.991C199.572 52.3305 199.872 50.6794 200.494 49.1391C201.116 47.5988 202.045 46.2018 203.227 45.034C204.408 43.8662 205.815 42.9521 207.362 42.348C208.91 41.7439 210.564 41.4625 212.224 41.521C219.275 41.521 225.078 46.557 224.742 55.573H206.042C206.33 58.403 208.442 60.848 212.517 60.848C214.817 60.848 216.833 59.841 217.6 58.21H224.458C223.015 63.05 218.267 66.551 212.177 66.551V66.555ZM206.277 51.255H217.548C217.295 49.9878 216.603 48.8505 215.594 48.0434C214.585 47.2363 213.324 46.8112 212.032 46.843C210.706 46.7765 209.399 47.1833 208.345 47.9909C207.291 48.7985 206.559 49.9542 206.278 51.252L206.277 51.255ZM155.92 100.486C156.735 102.932 158.605 104.035 161.339 104.035C164.217 104.035 166.758 102.164 166.758 98.376V95.546C165.922 96.5743 164.859 97.3951 163.652 97.9442C162.446 98.4933 161.129 98.7557 159.804 98.711C153.569 98.711 148.486 93.34 148.486 86.626C148.486 79.864 153.569 74.493 159.804 74.493C161.134 74.4455 162.456 74.7116 163.664 75.2697C164.872 75.8279 165.932 76.6625 166.758 77.706V75.017H173.328V97.51C173.328 106.19 167.428 109.499 161.195 109.499C154.432 109.499 149.972 105.615 149.495 100.483L155.92 100.486ZM161.195 80.486C159.979 80.4765 158.787 80.8285 157.771 81.4973C156.755 82.1661 155.961 83.1215 155.489 84.2425C155.017 85.3634 154.889 86.5993 155.12 87.7933C155.352 88.9874 155.933 90.0857 156.789 90.949C157.646 91.8124 158.74 92.4017 159.932 92.6424C161.124 92.8831 162.361 92.7642 163.486 92.3009C164.61 91.8375 165.572 91.0506 166.248 90.0399C166.925 89.0292 167.286 87.8403 167.286 86.624C167.31 85.8157 167.17 85.0109 166.873 84.2586C166.577 83.5063 166.13 82.8222 165.561 82.2479C164.992 81.6736 164.311 81.2212 163.562 80.9181C162.812 80.615 162.008 80.4677 161.2 80.485L161.195 80.486ZM180.619 75.018H187.189V78.855C187.647 77.6466 188.46 76.6055 189.522 75.8692C190.584 75.1329 191.845 74.736 193.137 74.731C193.882 74.7176 194.626 74.8143 195.343 75.018V81.685C194.388 81.3433 193.383 81.1648 192.369 81.157C189.252 81.157 187.189 83.603 187.189 87.536V99H180.619V75.018ZM209.4 74.49C210.72 74.4564 212.03 74.7286 213.227 75.2855C214.424 75.8424 215.476 76.6688 216.3 77.7V75.017H222.87V99H216.3V96.311C215.475 97.3435 214.422 98.1709 213.224 98.7284C212.025 99.2858 210.714 99.5582 209.393 99.524C203.015 99.524 198.124 93.817 198.124 87.007C198.124 80.197 203.017 74.49 209.4 74.49V74.49ZM210.792 80.49C207.192 80.49 204.749 83.271 204.749 87.012C204.749 90.753 207.194 93.535 210.792 93.535C214.39 93.535 216.834 90.752 216.834 87.012C216.834 83.272 214.384 80.485 210.787 80.485L210.792 80.49ZM230.216 75.022H236.786V77.7C237.625 76.6715 238.687 75.8477 239.892 75.2909C241.097 74.7342 242.413 74.4593 243.74 74.487C250.119 74.487 255.011 80.194 255.011 87.004C255.011 93.814 250.119 99.521 243.74 99.521C242.413 99.5485 241.097 99.2734 239.892 98.7168C238.687 98.1601 237.625 97.3363 236.786 96.308V109.02H230.216V75.022ZM242.3 80.485C238.7 80.485 236.257 83.266 236.257 87.007C236.257 90.748 238.7 93.53 242.3 93.53C245.9 93.53 248.343 90.747 248.343 87.007C248.343 83.267 245.893 80.485 242.3 80.485ZM260.764 63.028H267.334V77.751C268.118 76.6822 269.155 75.8248 270.352 75.2557C271.549 74.6865 272.868 74.4234 274.192 74.49C279.992 74.49 283.448 78.71 283.448 84.945V99H276.878V86.047C276.878 82.595 275.391 80.485 272.657 80.485C269.636 80.485 267.334 82.691 267.334 87.294V99H260.764V63.028Z" fill="white"/>
<defs>
<linearGradient id="paint0_linear" x1="35.293" y1="26.871" x2="125.625" y2="117.203" gradientUnits="userSpaceOnUse">
<stop stop-color="#00D3E6"/>
<stop offset="1" stop-color="#2B4CD4"/>
</linearGradient>
</defs>
</svg>
